X: 109
T: Miss McLeod's Reel
R: reel
Z: 2012 John Chambers <jc:trillian.mit.edu>
N: Also known as "Uncle Joe", "May Day", "Mrs. McCloud's Reel", "Hop High Ladies", "Hop Light Ladies", and "Hop Up Ladies".
N: Many versions of this tune exist, and the two parts are variants which may be played in any order.
M: C|
L: 1/8
K: G
|:"G"G2 BG dG BG | GB BA Bc BA | "G"G2 BG dG BG | "D7"A2 AG ((3ABc) BA |
| "G"G2 BG dG BG | GB BA Bc d2 | "C"((3efg) ed "D7"Bd ef | "G"ge dB "D7"Ac BA :|
|:"G"G2 gf "C"ed eg | "G"B2 BA "D7"Bc BA | "G"G2 gf "Em"ed Bd | "Am"ea ag "D7"fd ef |
| "G"G2 gf "C"ef ge | "G"dB BA "D7"Bc d2 | "C"((3efg) ed "D7"Bd ef | "G"ge dB "D7"Ac BA :|


